flaticon/files-and-folders/clipboard-22.svg

<svg xmlns="http://www.w3.org/2000/svg" width="32" height="32" viewBox="0 0 24 24">
    <path d="M 10.601562 12.800781 C 10.839844 12.800781 11 12.640625 11 12.398438 C 11 11.28125 11.878906 10.398438 13 10.398438 C 13.238281 10.398438 13.398438 10.238281 13.398438 10 C 13.398438 9.761719 13.238281 9.601562 13 9.601562 C 11.441406 9.601562 10.199219 10.839844 10.199219 12.398438 C 10.199219 12.640625 10.359375 12.800781 10.601562 12.800781 Z M 10.601562 12.800781"/>
    <path d="M 21.679688 20.519531 L 19 17.839844 L 19 4.800781 C 19 3.679688 18.121094 2.800781 17 2.800781 L 15 2.800781 L 15 2.398438 C 15 1.960938 14.640625 1.601562 14.199219 1.601562 L 13 1.601562 L 13 1.199219 C 13 0.519531 12.480469 0 11.800781 0 L 9.398438 0 C 8.71875 0 8.199219 0.558594 8.199219 1.199219 L 8.199219 1.601562 L 7 1.601562 C 6.558594 1.601562 6.199219 1.960938 6.199219 2.398438 L 6.199219 2.800781 L 4.199219 2.800781 C 3.078125 2.800781 2.199219 3.679688 2.199219 4.800781 L 2.199219 22 C 2.199219 23.121094 3.078125 24 4.199219 24 L 17 24 C 18.121094 24 19 23.121094 19 22 L 19 18.960938 L 21.121094 21.078125 C 21.199219 21.160156 21.28125 21.199219 21.398438 21.199219 C 21.519531 21.199219 21.601562 21.160156 21.679688 21.078125 C 21.839844 20.921875 21.839844 20.679688 21.679688 20.519531 Z M 7 2.398438 L 8.601562 2.398438 C 8.839844 2.398438 9 2.238281 9 2 L 9 1.199219 C 9 0.960938 9.160156 0.800781 9.398438 0.800781 L 11.800781 0.800781 C 12.039062 0.800781 12.199219 1 12.199219 1.199219 L 12.199219 2 C 12.199219 2.238281 12.359375 2.398438 12.601562 2.398438 L 14.199219 2.398438 L 14.199219 5.199219 L 7 5.199219 Z M 18.199219 22 C 18.199219 22.679688 17.679688 23.199219 17 23.199219 L 4.199219 23.199219 C 3.519531 23.199219 3 22.679688 3 22 L 3 4.800781 C 3 4.121094 3.519531 3.601562 4.199219 3.601562 L 6.199219 3.601562 L 6.199219 5.199219 C 6.199219 5.640625 6.558594 6 7 6 L 14.199219 6 C 14.640625 6 15 5.640625 15 5.199219 L 15 3.601562 L 17 3.601562 C 17.679688 3.601562 18.199219 4.121094 18.199219 4.800781 L 18.199219 17.039062 L 16.382812 15.222656 C 17.019531 14.460938 17.398438 13.476562 17.398438 12.398438 C 17.398438 9.960938 15.441406 8 13 8 C 12.050781 8 11.175781 8.296875 10.460938 8.800781 L 9 8.800781 C 8.761719 8.800781 8.601562 8.960938 8.601562 9.199219 C 8.601562 9.441406 8.761719 9.601562 9 9.601562 L 9.597656 9.601562 C 9.054688 10.261719 8.699219 11.089844 8.617188 12 L 7.800781 12 C 7.558594 12 7.398438 12.160156 7.398438 12.398438 C 7.398438 12.640625 7.558594 12.800781 7.800781 12.800781 L 8.617188 12.800781 C 8.820312 15.050781 10.695312 16.800781 13 16.800781 C 14.078125 16.800781 15.058594 16.417969 15.820312 15.78125 L 18.199219 18.160156 Z M 10.765625 9.570312 C 10.828125 9.546875 10.878906 9.507812 10.917969 9.457031 C 11.503906 9.042969 12.222656 8.800781 13 8.800781 C 15 8.800781 16.601562 10.441406 16.601562 12.398438 C 16.601562 14.398438 15 16 13 16 C 11 16 9.398438 14.398438 9.398438 12.398438 C 9.398438 11.246094 9.933594 10.226562 10.765625 9.570312 Z M 10.765625 9.570312"/>
    <path d="M5 16L8.199219 16C8.441406 16 8.601562 15.839844 8.601562 15.601562 8.601562 15.359375 8.441406 15.199219 8.199219 15.199219L5 15.199219C4.761719 15.199219 4.601562 15.359375 4.601562 15.601562 4.601562 15.839844 4.761719 16 5 16zM13.398438 18.398438L8.601562 18.398438C8.359375 18.398438 8.199219 18.558594 8.199219 18.800781 8.199219 19.039062 8.359375 19.199219 8.601562 19.199219L13.398438 19.199219C13.640625 19.199219 13.800781 19.039062 13.800781 18.800781 13.800781 18.558594 13.640625 18.398438 13.398438 18.398438zM15 18.398438C14.761719 18.398438 14.601562 18.558594 14.601562 18.800781 14.601562 19.039062 14.761719 19.199219 15 19.199219L16.199219 19.199219C16.441406 19.199219 16.601562 19.039062 16.601562 18.800781 16.601562 18.558594 16.441406 18.398438 16.199219 18.398438zM5 9.601562L7.398438 9.601562C7.640625 9.601562 7.800781 9.441406 7.800781 9.199219 7.800781 8.960938 7.640625 8.800781 7.398438 8.800781L5 8.800781C4.761719 8.800781 4.601562 8.960938 4.601562 9.199219 4.601562 9.441406 4.761719 9.601562 5 9.601562zM5 12.800781L6.199219 12.800781C6.441406 12.800781 6.601562 12.640625 6.601562 12.398438 6.601562 12.160156 6.441406 12 6.199219 12L5 12C4.761719 12 4.601562 12.160156 4.601562 12.398438 4.601562 12.640625 4.761719 12.800781 5 12.800781zM7 18.398438L5 18.398438C4.761719 18.398438 4.601562 18.558594 4.601562 18.800781 4.601562 19.039062 4.761719 19.199219 5 19.199219L7 19.199219C7.238281 19.199219 7.398438 19.039062 7.398438 18.800781 7.398438 18.558594 7.238281 18.398438 7 18.398438zM7 18.398438"/>
</svg>

<svg xmlns="http://www.w3.org/2000/svg" width="32" height="32" viewBox="0 0 24 24">
    <path d="M10.602 12.8c.238 0 .398-.16.398-.402 0-1.117.879-2 2-2 .238 0 .398-.16.398-.398 0-.238-.16-.398-.398-.398a2.783 2.783 0 0 0-2.8 2.796c0 .243.16.403.402.403zm0 0"/>
    <path d="M21.68 20.52L19 17.84V4.8c0-1.12-.879-2-2-2h-2v-.402a.801.801 0 0 0-.8-.796H13v-.403C13 .52 12.48 0 11.8 0H9.399C8.718 0 8.2.559 8.2 1.2v.402H7c-.441 0-.8.359-.8.796v.403h-2c-1.122 0-2 .879-2 2V22c0 1.121.878 2 2 2H17c1.121 0 2-.879 2-2v-3.04l2.121 2.118c.078.082.16.121.277.121.122 0 .204-.039.282-.12a.385.385 0 0 0 0-.56zM7 2.398h1.602C8.84 2.398 9 2.238 9 2v-.8c0-.24.16-.4.398-.4h2.403a.4.4 0 0 1 .398.4V2c0 .238.16.398.403.398h1.597V5.2H7zM18.2 22c0 .68-.52 1.2-1.2 1.2H4.2c-.68 0-1.2-.52-1.2-1.2V4.8c0-.679.52-1.198 1.2-1.198h2v1.597c0 .442.359.801.8.801h7.2c.44 0 .8-.36.8-.8V3.601h2c.68 0 1.2.52 1.2 1.199v12.238l-1.817-1.816a4.382 4.382 0 0 0 1.015-2.825A4.385 4.385 0 0 0 13 8a4.39 4.39 0 0 0-2.54.8H9c-.238 0-.398.16-.398.4 0 .241.16.402.398.402h.598A4.39 4.39 0 0 0 8.618 12H7.8c-.242 0-.403.16-.403.398 0 .243.16.403.403.403h.816a4.39 4.39 0 0 0 4.383 4 4.375 4.375 0 0 0 2.82-1.02l2.38 2.38zM10.765 9.57a.341.341 0 0 0 .152-.113 3.612 3.612 0 0 1 5.684 2.941C16.602 14.398 15 16 13 16c-2 0-3.602-1.602-3.602-3.602 0-1.152.536-2.171 1.368-2.828zm0 0"/>
    <path d="M5 16h3.2c.241 0 .402-.16.402-.398 0-.243-.16-.403-.403-.403H5c-.238 0-.398.16-.398.403 0 .238.16.398.398.398zm0 0M13.398 18.398H8.602c-.243 0-.403.16-.403.403 0 .238.16.398.403.398h4.796c.243 0 .403-.16.403-.398 0-.242-.16-.403-.403-.403zm0 0M15 18.398c-.238 0-.398.16-.398.403 0 .238.16.398.398.398h1.2c.241 0 .402-.16.402-.398 0-.242-.16-.403-.403-.403zm0 0M5 9.602h2.398c.243 0 .403-.16.403-.403 0-.238-.16-.398-.403-.398H5c-.238 0-.398.16-.398.398 0 .242.16.403.398.403zm0 0M5 12.8h1.2c.241 0 .402-.16.402-.402 0-.238-.16-.398-.403-.398H5c-.238 0-.398.16-.398.398 0 .243.16.403.398.403zm0 0M7 18.398H5c-.238 0-.398.16-.398.403 0 .238.16.398.398.398h2c.238 0 .398-.16.398-.398 0-.242-.16-.403-.398-.403zm0 0"/>
</svg>
